X: 23407
T: Leprechaun's Favourite, The
R: jig
M: 6/8
K: Bminor
B2g|:fBB eBB|cBc A2B|cff cff|ecB Afe|
fBB eBB|cBc A2B|cff ecA|(B3 B)z2:|
bc'b baf|bab c'2b|aba afe|fef az2|
c'ac' baf|b3 c'2b|aff ecA|B3 Bz2:|

